X:13855
T:Qu ye aquella fumarea (CT 094)
C:Tradicional
S:Msica Tradicional Asturiana, (C) Tello & Tito. Asturies, 2001.
S:http://pagina.de/MusTradAst <telloytito@asturies.org>
N:Cancin de empleo indeterminado, dictada por D. Juan Ura Ru, de veintiocho aos, de Uviu, quien dice la aprendi en Meres, ayuntamiento de Siero.
O:Meres (Siero)
A:Asturies
Z:Cancioneru de Torner 094
M:6/8
L:1/8
Q:3/8=88
W:Qu ye aquella fumarea
W:que cuerre pel Humeral
W:Ye un carrn que non tien mules
W:y que diz: voy char andar.
W:Ai! tirulalirulaliru
W:ai! tirulalirulalar.
K:C
d2 d
|_e2 e d2 c|B2 B d2 d|_e2 e d2 c|B2 z c2 c|
d2 c B2 A|G2 G c2 c|d2 c B2 A|G2 z c3|
BcB AGA|B2 G c3|BcB AGA|G2 z4||
